shared/images/iconfont/kb-iconfont-hand-wave-16.svg

<?xml version="1.0" encoding="UTF-8"?>
<svg width="16px" height="16px" viewBox="0 0 16 16" version="1.1" xmlns="http://www.w3.org/2000/svg" xmlns:xlink="http://www.w3.org/1999/xlink">
    <!-- Generator: sketchtool 49.2 (51160) - http://www.bohemiancoding.com/sketch -->
    <title>34882918-A2E9-43B3-843F-E3C8F7644B66</title>
    <desc>Created with sketchtool.</desc>
    <defs></defs>
    <g id="Colors,-icons" stroke="none" stroke-width="1" fill="none" fill-rule="evenodd">
        <g id="Icons-2" transform="translate(-371.000000, -452.000000)">
            <g id="kb-iconfont-hand-wave-16" transform="translate(371.000000, 452.000000)">
                <rect id="icon-area" x="1" y="0" width="16" height="16"></rect>
                <path d="M1.53432205,3.2441373 C1.85334401,3.42789192 2.26089596,3.31901883 2.4457813,3.00065083 C3.04281103,1.97051445 4.14251339,1.33548893 5.33315222,1.33333222 C5.70134175,1.33333222 5.99981833,1.03485564 5.99981833,0.666666111 C5.99981833,0.298476585 5.70134175,0 5.33315222,0 C3.66665563,0.00295996731 2.1272721,0.891278715 1.29083559,2.33266472 C1.10682823,2.65165757 1.21575085,3.05940091 1.53432205,3.2441373 Z M14.3722047,7.9583267 C14.1847233,7.77074595 13.9303843,7.66535582 13.6651753,7.66535582 C13.3999663,7.66535582 13.1456273,7.77074595 12.9581459,7.9583267 L11.1248141,9.79165851 L10.5942145,9.26105895 L13.594212,6.26106145 C13.9846936,5.87057805 13.9846921,5.23748086 13.5942087,4.84699929 C13.2037253,4.45651773 12.5706281,4.45651923 12.1801465,4.84700263 L9.18014902,7.84700013 L8.64955613,7.31640057 L12.6482195,3.31835723 C13.0373964,2.92765259 13.0367774,2.29562358 12.6468359,1.90568202 C12.2568943,1.51574046 11.6248653,1.51512144 11.2341606,1.90429841 L7.2354973,5.90234175 L6.70555108,5.37238886 L9.37221552,2.70572441 C9.7613925,2.31501977 9.76077348,1.68299075 9.37083192,1.2930492 C8.98089036,0.903107637 8.34886135,0.902488614 7.9581567,1.29166559 L1.99982833,7.24999396 L1.99982833,5.66666194 C1.99982833,5.11437765 1.55211346,4.66666278 0.999829167,4.66666278 C0.447544877,4.66666278 -0.000169999999,5.11437765 -0.000169999999,5.66666194 L-0.000169999999,8.20051317 C0.000413879805,9.62860017 0.611137979,10.9883963 1.67821527,11.9374901 L3.98680668,13.989575 C5.7022473,15.5118506 8.30633488,15.4353937 9.92950839,13.8150952 L14.3722114,9.37238552 C14.5597912,9.18490323 14.6651802,8.93056374 14.6651789,8.66535473 C14.6651777,8.40014572 14.5597863,8.14580723 14.3722047,7.9583267 Z M15.0004575,12.7565027 C14.847617,12.6673149 14.6655083,12.6427956 14.4945216,12.688383 C14.3235349,12.7339703 14.1778043,12.845896 14.0896516,12.9993358 C13.4921168,14.0292738 12.392374,14.66419 11.201654,14.6666678 C10.8334645,14.6666678 10.5349879,14.9651444 10.5349879,15.3333339 C10.5349879,15.7015234 10.8334645,16 11.201654,16 C12.8679318,15.9968622 14.407038,15.1085599 15.2433173,13.6673353 C15.3319982,13.5143698 15.3562313,13.3324247 15.3106783,13.1615807 C15.2651253,12.9907368 15.1535235,12.84501 15.0004575,12.7565027 Z" id="wave" fill="#000000" fill-rule="nonzero"></path>
            </g>
        </g>
    </g>
</svg>

<svg xmlns="http://www.w3.org/2000/svg" width="16" height="16" viewBox="0 0 16 16">
    <g fill="none" fill-rule="evenodd">
        <path d="M1 0h16v16H1z"/>
        <path fill="#000" fill-rule="nonzero" d="M1.534 3.244a.668.668 0 0 0 .912-.243 3.344 3.344 0 0 1 2.887-1.668.667.667 0 1 0 0-1.333 4.683 4.683 0 0 0-4.042 2.333.668.668 0 0 0 .243.911zm12.838 4.714a1 1 0 0 0-1.414 0l-1.833 1.834-.53-.53 3-3a1 1 0 1 0-1.415-1.415l-3 3-.53-.53 3.998-3.999a1 1 0 0 0-1.414-1.414L7.235 5.902l-.53-.53 2.667-2.666a1 1 0 0 0-1.414-1.414L2 7.25V5.667a1 1 0 1 0-2 0V8.2c0 1.428.611 2.787 1.678 3.736l2.309 2.053a4.337 4.337 0 0 0 5.943-.175l4.442-4.443a1 1 0 0 0 0-1.414zM15 12.757a.664.664 0 0 0-.91.242 3.347 3.347 0 0 1-2.888 1.668.667.667 0 0 0 0 1.333 4.683 4.683 0 0 0 4.041-2.333.666.666 0 0 0-.243-.91z"/>
    </g>
</svg>
